X: 1
T: the Burning of the Piper's Hut
R: March
C: Trad.
O: Scotland
M: 4/4
L: 1/8
%Q: 1/4=120
K: Am
E2 |:\
"Am"ABcd e2e2 | edeg e2dc |\
[1,3 "G"B2G2 d2G2 | Bcde d2cB :|\
[2,4 "G"B2G2 e2dc | "Am"B2A2 A2 :|
|: A2 |:\
"Am"e2A2 g2A2 | e2A2 g2dc |\
[1,3 "G"B2G2 d2G2 | Bcde d2cB :|\
[2,4 "G"B2G2 e2dc | "Em"B2"Am"A2 A2 :|
